status/22/brightness-medium-symbolic.svg

<?xml version="1.0" encoding="UTF-8" standalone="no"?>
<svg
   id="svg8"
   version="1.1"
   viewBox="0 0 22 22"
   sodipodi:docname="brightness-medium-symbolic.svg"
   xml:space="preserve"
   inkscape:version="1.3.2 (091e20ef0f, 2023-11-25, custom)"
   xmlns:inkscape="http://www.inkscape.org/namespaces/inkscape"
   xmlns:sodipodi="http://sodipodi.sourceforge.net/DTD/sodipodi-0.dtd"
   xmlns="http://www.w3.org/2000/svg"
   xmlns:svg="http://www.w3.org/2000/svg"><sodipodi:namedview
     id="namedview1"
     pagecolor="#ffffff"
     bordercolor="#000000"
     borderopacity="0.25"
     inkscape:showpageshadow="2"
     inkscape:pageopacity="0.0"
     inkscape:pagecheckerboard="0"
     inkscape:deskcolor="#d1d1d1"
     inkscape:zoom="18.641906"
     inkscape:cx="10.406661"
     inkscape:cy="5.5251862"
     inkscape:window-width="1279"
     inkscape:window-height="1364"
     inkscape:window-x="1280"
     inkscape:window-y="0"
     inkscape:window-maximized="0"
     inkscape:current-layer="layer1"
     showgrid="true"><inkscape:grid
       id="grid1"
       units="px"
       originx="0"
       originy="0"
       spacingx="1"
       spacingy="1"
       empcolor="#0099e5"
       empopacity="0.30196078"
       color="#0099e5"
       opacity="0.14902"
       empspacing="5"
       dotted="false"
       gridanglex="30"
       gridanglez="30"
       visible="true" /></sodipodi:namedview><defs
     id="defs2"><style
       type="text/css"
       id="current-color-scheme">
        .ColorScheme-Text {            color:#232629;        }
    </style></defs><g
     inkscape:label="Capa 1"
     id="layer1"
     transform="translate(28.818378,-5.8079072)"><path
       id="path23-1"
       style="fill:#a3b7cc;fill-opacity:1;stroke-width:1.38675;stroke-linecap:round;stroke-linejoin:round;paint-order:stroke fill markers"
       d="M -17.808612 6.8079072 L -17.808612 8.8079072 L -17.808612 10.807907 A 2 2 0 0 0 -15.808612 8.8079072 A 2 2 0 0 0 -17.808612 6.8079072 z M -11.808612 8.8079072 L -11.808612 10.807907 L -11.808612 12.807907 A 2 2 0 0 0 -9.8086124 10.807907 A 2 2 0 0 0 -11.808612 8.8079072 z M -17.808612 11.807907 L -17.808612 16.807907 L -17.808612 21.807907 A 5 5 0 0 0 -12.808612 16.807907 A 5 5 0 0 0 -17.808612 11.807907 z M -9.7988467 14.807907 L -9.7988467 16.807907 L -9.7988467 18.807907 A 2 2 0 0 0 -7.7988467 16.807907 A 2 2 0 0 0 -9.7988467 14.807907 z M -11.808612 20.807907 L -11.808612 22.807907 L -11.808612 24.807907 A 2 2 0 0 0 -9.8086124 22.807907 A 2 2 0 0 0 -11.808612 20.807907 z M -17.818378 22.807907 L -17.818378 24.807907 L -17.818378 26.807907 A 2 2 0 0 0 -15.818378 24.807907 A 2 2 0 0 0 -17.818378 22.807907 z " /><path
       id="path23"
       style="fill:#e1ebf2;stroke-width:1.1094;stroke-linecap:round;stroke-linejoin:round;paint-order:stroke fill markers;fill-opacity:1"
       d="M -17.808612 7.8079072 L -17.808612 8.8079072 L -17.808612 9.8079072 A 1 1 0 0 0 -16.808612 8.8079072 A 1 1 0 0 0 -17.808612 7.8079072 z M -11.808612 9.8079072 L -11.808612 10.807907 L -11.808612 11.807907 A 1 1 0 0 0 -10.808612 10.807907 A 1 1 0 0 0 -11.808612 9.8079072 z M -17.808612 12.807907 L -17.808612 16.807907 L -17.808612 20.807907 A 4 4 0 0 0 -13.808612 16.807907 A 4 4 0 0 0 -17.808612 12.807907 z M -9.7988467 15.807907 L -9.7988467 16.807907 L -9.7988467 17.807907 A 1 1 0 0 0 -8.7988467 16.807907 A 1 1 0 0 0 -9.7988467 15.807907 z M -11.808612 21.807907 L -11.808612 22.807907 L -11.808612 23.807907 A 1 1 0 0 0 -10.808612 22.807907 A 1 1 0 0 0 -11.808612 21.807907 z M -17.818378 23.807907 L -17.818378 24.807907 L -17.818378 25.807907 A 1 1 0 0 0 -16.818378 24.807907 A 1 1 0 0 0 -17.818378 23.807907 z " /><path
       id="path23-1-5"
       style="fill:#f37d5c;fill-opacity:1;stroke-width:1.38675;stroke-linecap:round;stroke-linejoin:round;paint-order:stroke fill markers"
       d="m -17.818378,6.8079074 v 2 1.9999996 a 2,2 0 0 1 -2,-1.9999996 2,2 0 0 1 2,-2 z m -6,2 v 1.9999996 2 a 2,2 0 0 1 -2,-2 2,2 0 0 1 2,-1.9999996 z m 6,2.9999996 v 5 5 a 5,5 0 0 1 -5,-5 5,5 0 0 1 5,-5 z m -8.009765,3 v 2 2 a 2,2 0 0 1 -2,-2 2,2 0 0 1 2,-2 z m 2.009765,6 v 2 2 a 2,2 0 0 1 -2,-2 2,2 0 0 1 2,-2 z m 6.009766,2 v 2 2 a 2,2 0 0 1 -2,-2 2,2 0 0 1 2,-2 z" /><path
       id="path23-2"
       style="fill:#ffb8a3;stroke-width:1.1094;stroke-linecap:round;stroke-linejoin:round;paint-order:stroke fill markers;fill-opacity:1"
       d="m -17.818378,7.8079074 v 1 1 a 1,1 0 0 1 -1,-1 1,1 0 0 1 1,-1 z m -6,2 v 0.9999996 1 a 1,1 0 0 1 -1,-1 1,1 0 0 1 1,-0.9999996 z m 6,2.9999996 v 4 4 a 4,4 0 0 1 -4,-4 4,4 0 0 1 4,-4 z m -8.009765,3 v 1 1 a 1,1 0 0 1 -1,-1 1,1 0 0 1 1,-1 z m 2.009765,6 v 1 1 a 1,1 0 0 1 -1,-1 1,1 0 0 1 1,-1 z m 6.009766,2 v 1 1 a 1,1 0 0 1 -1,-1 1,1 0 0 1 1,-1 z" /><path
       id="path23-1-4"
       style="fill:#a3b7cc;fill-opacity:1;stroke-width:1.38675;stroke-linecap:round;stroke-linejoin:round;paint-order:stroke fill markers"
       d="m -23.818378,8.8079072 v 1.9999998 2 c 1.104569,0 2,-0.89543 2,-2 0,-1.1045694 -0.895431,-1.9999998 -2,-1.9999998 z m -1.990235,5.9999998 v 2 2 c 1.104569,0 2,-0.895431 2,-2 0,-1.104569 -0.895431,-2 -2,-2 z m 1.990235,6 v 2 2 c 1.104569,0 2,-0.895431 2,-2 0,-1.104569 -0.895431,-2 -2,-2 z"
       sodipodi:nodetypes="cccsccccsccccsc" /><path
       id="path23-4"
       style="fill:#e1ebf2;stroke-width:1.1094;stroke-linecap:round;stroke-linejoin:round;paint-order:stroke fill markers;fill-opacity:1"
       d="m -23.818378,9.8079072 v 0.9999998 1 c 0.552285,0 1,-0.447715 1,-1 0,-0.552285 -0.447715,-0.9999998 -1,-0.9999998 z m -1.990235,5.9999998 v 1 1 c 0.552285,0 1,-0.447715 1,-1 0,-0.552285 -0.447715,-1 -1,-1 z m 1.990235,6 v 1 1 c 0.552285,0 1,-0.447715 1,-1 0,-0.552285 -0.447715,-1 -1,-1 z"
       sodipodi:nodetypes="cccsccccsccccsc" /><path
       id="path23-1-4-8"
       style="fill:#f37d5c;fill-opacity:1;stroke-width:1.38675;stroke-linecap:round;stroke-linejoin:round;paint-order:stroke fill markers"
       d="m -11.808613,8.8079074 v 1.9999996 2 c -1.104569,0 -2,-0.89543 -2,-2 0,-1.1045692 0.895431,-1.9999996 2,-1.9999996 z m 1.990235,5.9999996 v 2 2 c -1.104569,0 -2,-0.895431 -2,-2 0,-1.104569 0.895431,-2 2,-2 z m -1.990235,6 v 2 2 c -1.104569,0 -2,-0.895431 -2,-2 0,-1.104569 0.895431,-2 2,-2 z"
       sodipodi:nodetypes="cccsccccsccccsc" /><path
       id="path23-4-6"
       style="fill:#ffb8a3;stroke-width:1.1094;stroke-linecap:round;stroke-linejoin:round;paint-order:stroke fill markers;fill-opacity:1"
       d="m -11.808613,9.8079074 v 0.9999996 1 c -0.552285,0 -1,-0.447715 -1,-1 0,-0.552285 0.447715,-0.9999996 1,-0.9999996 z m 1.990235,5.9999996 v 1 1 c -0.552285,0 -1,-0.447715 -1,-1 0,-0.552285 0.447715,-1 1,-1 z m -1.990235,6 v 1 1 c -0.552285,0 -1,-0.447715 -1,-1 0,-0.552285 0.447715,-1 1,-1 z"
       sodipodi:nodetypes="cccsccccsccccsc" /></g><style
     type="text/css"
     id="current-color-scheme-5">
        .ColorScheme-PositiveText {
            color:#27ae60;
        }
        .ColorScheme-NegativeText {
            color:#da4453;
        }
    </style><style
     type="text/css"
     id="current-color-scheme-54">
      .ColorScheme-Text {
        color:#31363b;
      }
      .ColorScheme-Background {
        color:#eff0f1;
      }
      .ColorScheme-Highlight {
        color:#3498db;
      }
      .ColorScheme-ViewText {
        color:#31363b;
      }
      .ColorScheme-ViewBackground {
        color:#fcfcfc;
      }
      .ColorScheme-ViewHover {
        color:#93cee9;
      }
      .ColorScheme-ViewFocus{
        color:#3daee9;
      }
      .ColorScheme-ButtonText {
        color:#31363b;
      }
      .ColorScheme-ButtonBackground {
        color:#eff0f1;
      }
      .ColorScheme-ButtonHover {
        color:#93cee9;
      }
      .ColorScheme-ButtonFocus{
        color:#3daee9;
      }
      .ColorScheme-NegativeText{
        color:#e74c3c;
      }
      </style><style
     type="text/css"
     id="current-color-scheme-4">
      .ColorScheme-Text {
        color:#31363b;
      }
      .ColorScheme-Background {
        color:#eff0f1;
      }
      .ColorScheme-Highlight {
        color:#3498db;
      }
      .ColorScheme-ViewText {
        color:#31363b;
      }
      .ColorScheme-ViewBackground {
        color:#fcfcfc;
      }
      .ColorScheme-ViewHover {
        color:#93cee9;
      }
      .ColorScheme-ViewFocus{
        color:#3daee9;
      }
      .ColorScheme-ButtonText {
        color:#31363b;
      }
      .ColorScheme-ButtonBackground {
        color:#eff0f1;
      }
      .ColorScheme-ButtonHover {
        color:#93cee9;
      }
      .ColorScheme-ButtonFocus{
        color:#3daee9;
      }
      .ColorScheme-NegativeText{
        color:#e74c3c;
      }
      </style></svg>

<?xml version="1.0" encoding="UTF-8" standalone="no"?>
<svg
   id="svg8"
   version="1.1"
   viewBox="0 0 22 22"
   sodipodi:docname="brightness-medium-symbolic.svg"
   xml:space="preserve"
   inkscape:version="1.4.2 (ebf0e940d0, 2025-05-08)"
   xmlns:inkscape="http://www.inkscape.org/namespaces/inkscape"
   xmlns:sodipodi="http://sodipodi.sourceforge.net/DTD/sodipodi-0.dtd"
   xmlns="http://www.w3.org/2000/svg"
   xmlns:svg="http://www.w3.org/2000/svg"><sodipodi:namedview
     id="namedview1"
     pagecolor="#ffffff"
     bordercolor="#000000"
     borderopacity="0.25"
     inkscape:showpageshadow="2"
     inkscape:pageopacity="0.0"
     inkscape:pagecheckerboard="0"
     inkscape:deskcolor="#d1d1d1"
     inkscape:zoom="18.641906"
     inkscape:cx="10.406661"
     inkscape:cy="5.5520074"
     inkscape:window-width="1279"
     inkscape:window-height="1080"
     inkscape:window-x="0"
     inkscape:window-y="0"
     inkscape:window-maximized="0"
     inkscape:current-layer="layer1"
     showgrid="true"><inkscape:grid
       id="grid1"
       units="px"
       originx="0"
       originy="0"
       spacingx="1"
       spacingy="1"
       empcolor="#0099e5"
       empopacity="0.30196078"
       color="#0099e5"
       opacity="0.14902"
       empspacing="5"
       dotted="false"
       gridanglex="30"
       gridanglez="30"
       visible="true" /></sodipodi:namedview><defs
     id="defs2"><style
       type="text/css"
       id="current-color-scheme">
        .ColorScheme-Text {            color:#232629;        }
    </style></defs><g
     inkscape:label="Capa 1"
     id="layer1"
     transform="translate(28.818378,-5.8079072)"><g
       id="g1"
       transform="matrix(0.90358458,0,0,0.89807909,-1.7174955,1.605792)"><path
         id="path23-1"
         style="fill:#a3b7cc;fill-opacity:1;stroke-width:1.38675;stroke-linecap:round;stroke-linejoin:round;paint-order:stroke fill markers"
         d="m -17.808612,6.8079072 v 2 1.9999998 a 2,2 0 0 0 2,-1.9999998 2,2 0 0 0 -2,-2 z m 6,2 v 1.9999998 2 a 2,2 0 0 0 1.9999996,-2 2,2 0 0 0 -1.9999996,-1.9999998 z m -6,2.9999998 v 5 5 a 5,5 0 0 0 5,-5 5,5 0 0 0 -5,-5 z m 8.0097653,3 v 2 2 a 2,2 0 0 0 2,-2 2,2 0 0 0 -2,-2 z m -2.0097653,6 v 2 2 a 2,2 0 0 0 1.9999996,-2 2,2 0 0 0 -1.9999996,-2 z m -6.009766,2 v 2 2 a 2,2 0 0 0 2,-2 2,2 0 0 0 -2,-2 z" /><path
         id="path23"
         style="fill:#e1ebf2;fill-opacity:1;stroke-width:1.1094;stroke-linecap:round;stroke-linejoin:round;paint-order:stroke fill markers"
         d="m -17.808612,7.8079072 v 1 1 a 1,1 0 0 0 1,-1 1,1 0 0 0 -1,-1 z m 6,2 v 0.9999998 1 a 1,1 0 0 0 1,-1 1,1 0 0 0 -1,-0.9999998 z m -6,2.9999998 v 4 4 a 4,4 0 0 0 4,-4 4,4 0 0 0 -4,-4 z m 8.0097653,3 v 1 1 a 1,1 0 0 0 1,-1 1,1 0 0 0 -1,-1 z m -2.0097653,6 v 1 1 a 1,1 0 0 0 1,-1 1,1 0 0 0 -1,-1 z m -6.009766,2 v 1 1 a 1,1 0 0 0 1,-1 1,1 0 0 0 -1,-1 z" /><path
         id="path23-1-5"
         style="fill:#f37d5c;fill-opacity:1;stroke-width:1.38675;stroke-linecap:round;stroke-linejoin:round;paint-order:stroke fill markers"
         d="m -17.818378,6.8079074 v 2 1.9999996 a 2,2 0 0 1 -2,-1.9999996 2,2 0 0 1 2,-2 z m -6,2 v 1.9999996 2 a 2,2 0 0 1 -2,-2 2,2 0 0 1 2,-1.9999996 z m 6,2.9999996 v 5 5 a 5,5 0 0 1 -5,-5 5,5 0 0 1 5,-5 z m -8.009765,3 v 2 2 a 2,2 0 0 1 -2,-2 2,2 0 0 1 2,-2 z m 2.009765,6 v 2 2 a 2,2 0 0 1 -2,-2 2,2 0 0 1 2,-2 z m 6.009766,2 v 2 2 a 2,2 0 0 1 -2,-2 2,2 0 0 1 2,-2 z" /><path
         id="path23-2"
         style="fill:#ffb8a3;fill-opacity:1;stroke-width:1.1094;stroke-linecap:round;stroke-linejoin:round;paint-order:stroke fill markers"
         d="m -17.818378,7.8079074 v 1 1 a 1,1 0 0 1 -1,-1 1,1 0 0 1 1,-1 z m -6,2 v 0.9999996 1 a 1,1 0 0 1 -1,-1 1,1 0 0 1 1,-0.9999996 z m 6,2.9999996 v 4 4 a 4,4 0 0 1 -4,-4 4,4 0 0 1 4,-4 z m -8.009765,3 v 1 1 a 1,1 0 0 1 -1,-1 1,1 0 0 1 1,-1 z m 2.009765,6 v 1 1 a 1,1 0 0 1 -1,-1 1,1 0 0 1 1,-1 z m 6.009766,2 v 1 1 a 1,1 0 0 1 -1,-1 1,1 0 0 1 1,-1 z" /><path
         id="path23-1-4"
         style="fill:#a3b7cc;fill-opacity:1;stroke-width:1.38675;stroke-linecap:round;stroke-linejoin:round;paint-order:stroke fill markers"
         d="m -23.818378,8.8079072 v 1.9999998 2 c 1.104569,0 2,-0.89543 2,-2 0,-1.1045694 -0.895431,-1.9999998 -2,-1.9999998 z m -1.990235,5.9999998 v 2 2 c 1.104569,0 2,-0.895431 2,-2 0,-1.104569 -0.895431,-2 -2,-2 z m 1.990235,6 v 2 2 c 1.104569,0 2,-0.895431 2,-2 0,-1.104569 -0.895431,-2 -2,-2 z"
         sodipodi:nodetypes="cccsccccsccccsc" /><path
         id="path23-4"
         style="fill:#e1ebf2;fill-opacity:1;stroke-width:1.1094;stroke-linecap:round;stroke-linejoin:round;paint-order:stroke fill markers"
         d="m -23.818378,9.8079072 v 0.9999998 1 c 0.552285,0 1,-0.447715 1,-1 0,-0.552285 -0.447715,-0.9999998 -1,-0.9999998 z m -1.990235,5.9999998 v 1 1 c 0.552285,0 1,-0.447715 1,-1 0,-0.552285 -0.447715,-1 -1,-1 z m 1.990235,6 v 1 1 c 0.552285,0 1,-0.447715 1,-1 0,-0.552285 -0.447715,-1 -1,-1 z"
         sodipodi:nodetypes="cccsccccsccccsc" /><path
         id="path23-1-4-8"
         style="fill:#f37d5c;fill-opacity:1;stroke-width:1.38675;stroke-linecap:round;stroke-linejoin:round;paint-order:stroke fill markers"
         d="m -11.808613,8.8079074 v 1.9999996 2 c -1.104569,0 -2,-0.89543 -2,-2 0,-1.1045692 0.895431,-1.9999996 2,-1.9999996 z m 1.990235,5.9999996 v 2 2 c -1.104569,0 -2,-0.895431 -2,-2 0,-1.104569 0.895431,-2 2,-2 z m -1.990235,6 v 2 2 c -1.104569,0 -2,-0.895431 -2,-2 0,-1.104569 0.895431,-2 2,-2 z"
         sodipodi:nodetypes="cccsccccsccccsc" /><path
         id="path23-4-6"
         style="fill:#ffb8a3;fill-opacity:1;stroke-width:1.1094;stroke-linecap:round;stroke-linejoin:round;paint-order:stroke fill markers"
         d="m -11.808613,9.8079074 v 0.9999996 1 c -0.552285,0 -1,-0.447715 -1,-1 0,-0.552285 0.447715,-0.9999996 1,-0.9999996 z m 1.990235,5.9999996 v 1 1 c -0.552285,0 -1,-0.447715 -1,-1 0,-0.552285 0.447715,-1 1,-1 z m -1.990235,6 v 1 1 c -0.552285,0 -1,-0.447715 -1,-1 0,-0.552285 0.447715,-1 1,-1 z"
         sodipodi:nodetypes="cccsccccsccccsc" /></g></g><style
     type="text/css"
     id="current-color-scheme-5">
        .ColorScheme-PositiveText {
            color:#27ae60;
        }
        .ColorScheme-NegativeText {
            color:#da4453;
        }
    </style><style
     type="text/css"
     id="current-color-scheme-54">
      .ColorScheme-Text {
        color:#31363b;
      }
      .ColorScheme-Background {
        color:#eff0f1;
      }
      .ColorScheme-Highlight {
        color:#3498db;
      }
      .ColorScheme-ViewText {
        color:#31363b;
      }
      .ColorScheme-ViewBackground {
        color:#fcfcfc;
      }
      .ColorScheme-ViewHover {
        color:#93cee9;
      }
      .ColorScheme-ViewFocus{
        color:#3daee9;
      }
      .ColorScheme-ButtonText {
        color:#31363b;
      }
      .ColorScheme-ButtonBackground {
        color:#eff0f1;
      }
      .ColorScheme-ButtonHover {
        color:#93cee9;
      }
      .ColorScheme-ButtonFocus{
        color:#3daee9;
      }
      .ColorScheme-NegativeText{
        color:#e74c3c;
      }
      </style><style
     type="text/css"
     id="current-color-scheme-4">
      .ColorScheme-Text {
        color:#31363b;
      }
      .ColorScheme-Background {
        color:#eff0f1;
      }
      .ColorScheme-Highlight {
        color:#3498db;
      }
      .ColorScheme-ViewText {
        color:#31363b;
      }
      .ColorScheme-ViewBackground {
        color:#fcfcfc;
      }
      .ColorScheme-ViewHover {
        color:#93cee9;
      }
      .ColorScheme-ViewFocus{
        color:#3daee9;
      }
      .ColorScheme-ButtonText {
        color:#31363b;
      }
      .ColorScheme-ButtonBackground {
        color:#eff0f1;
      }
      .ColorScheme-ButtonHover {
        color:#93cee9;
      }
      .ColorScheme-ButtonFocus{
        color:#3daee9;
      }
      .ColorScheme-NegativeText{
        color:#e74c3c;
      }
      </style></svg>
